X:1
T:Earl of Angus and Arran
T:Earl of Angus and Arran
T:William Marshall
C:William Marshall
L:1/8
M:4/4
K:Gmin
V:1 treble 
V:1
 D |"Gm" G<G d2 B>A G>B |"Cm" c<[EB] A>G"D7" ^F>D E>F |"Gm" G<G d2 B>A G>B | %4
"Cm" c<E"D7" A>^F"Gm" G3 :| d |"Gm" B<d G>d B<d G>^f | g>G B>G"D7" ^F<A A>c |"Gm" B<d G>d B<d g>b | %9
"A7" a>g"^(#)" f>e"D" d3 |] d |"Cm" c<e A>c"Gm" B<d G>B |"Cm" A>B c>B"D7" A>G ^F>D | %13
"Gm" G<B"D7" A>c"Gm" B<d"Cm" c>e |"Gm" d<g"D7" ^f>a"Gm" g3 |] %15

